X: 40692
T: Torn Jacket, The
R: reel
M: 4/4
K: Dmajor
|:F3A dfed|cA A2 (3Bcd ec|AF F2 dfed|cAGE FD D2|
F3A dfed|cA A2 (3Bcd ec|dcde fded|cAGE FD D2:|
|:FAdf a3f|g3f gfed|cA A2 (3Bcd ef|gfed cAGE|
FAdf a3f|g3f gfef|g2 ba gfed|cAGE FD D2:|

